svg/outline/visa.svg

<svg height="471" viewBox="0 0 750 471" width="750" xmlns="http://www.w3.org/2000/svg"><g fill="#393939"><path d="m52.8846154 28.2035928c-13.2760757 0-24.0384616 10.5226489-24.0384616 23.502994v367.5868262c0 12.980345 10.7623859 23.502994 24.0384616 23.502994h644.2307696c13.276075 0 24.038461-10.522649 24.038461-23.502994v-367.5868262c0-12.9803451-10.762386-23.502994-24.038461-23.502994zm0-28.2035928h644.2307696c29.207366 0 52.884615 23.1498275 52.884615 51.7065868v367.5868262c0 28.55676-23.677249 51.706587-52.884615 51.706587h-644.2307696c-29.2073666 0-52.8846154-23.149827-52.8846154-51.706587v-367.5868262c0-28.5567593 23.6772488-51.7065868 52.8846154-51.7065868z"/><g transform="translate(60 139)"><path d="m222.597614 191.12625 31.844591-186.86372727h50.93359l-31.866545 186.86372727z"/><path d="m457.520795 8.29261364c-10.091454-3.78572728-25.902545-7.84827273-45.649227-7.84827273-50.327454 0-85.779273 25.34413639-86.080909 61.66745459-.2835 26.850409 25.308818 41.8291365 44.628818 50.7674995 19.824955 9.158864 26.490546 15.000682 26.396046 23.179228-.126 12.525545-15.832091 18.248045-30.471955 18.248045-20.386227 0-31.2165-2.832136-47.943-9.808909l-6.563454-2.970545-7.148591 41.832c11.8965 5.215636 33.894954 9.735409 56.736272 9.969272 53.5395 0 88.29641-25.053954 88.691591-63.841909.191864-21.256772-13.377954-37.4344088-42.762681-50.7703634-17.803228-8.6443636-28.706046-14.4126818-28.590546-23.1658636 0-7.7671364 9.228546-16.0726364 29.168046-16.0726364 16.655863-.2586818 28.720363 3.3733637 38.120727 7.1590909l4.564636 2.1563182z"/><path d="m588.586568 4.26252273h-39.356863c-12.19241 0-21.315955 3.32754545-26.670955 15.49609087l-75.642955 171.2483184h53.484137s8.745545-23.025546 10.723363-28.080818c5.844682 0 57.801546.080181 65.229819.080181 1.523454 6.5415 6.196909 28.000637 6.196909 28.000637h47.261454zm-62.4435 120.66122727c4.212409-10.766318 20.292682-52.2355909 20.292682-52.2355909-.300682.4973182 4.180909-10.8188182 6.753409-17.8347273l3.443046 16.1108182s9.75259 44.604955 11.790545 53.958545h-42.279682z"/><path d="m179.361477 4.26252273-49.865454 127.42704527-5.313-25.895863c-9.282955-29.852455-38.2056821-62.1943641-70.5399548-78.3863186l45.5957727 163.4210456 53.8888641-.062046 80.185636-186.50386327z"/><path d="m82.9686136 4.26252273h-82.13004542l-.65004545 3.88786363c63.89631817 15.46745454 106.17600027 52.84650004 123.72627227 97.75881864l-17.85859-85.8709095c-3.083182-11.8325455-12.0253641-15.36340914-23.0875914-15.77577277"/></g></g></svg>

<svg width="750" height="471" viewBox="0 0 750 471" version="1.1" xmlns="http://www.w3.org/2000/svg" xmlns:xlink="http://www.w3.org/1999/xlink">
    <!-- Generator: Sketch 48.2 (47327) - http://www.bohemiancoding.com/sketch -->
    <desc>Created with Sketch.</desc>
    <defs></defs>
    <g id="Page-1" stroke="none" stroke-width="1" fill="none" fill-rule="evenodd">
        <g id="visa" fill="#393939" fill-rule="nonzero">
            <path d="M52.8846154,28.2035928 C39.6085397,28.2035928 28.8461538,38.7262417 28.8461538,51.7065868 L28.8461538,419.293413 C28.8461538,432.273758 39.6085397,442.796407 52.8846154,442.796407 L697.115385,442.796407 C710.39146,442.796407 721.153846,432.273758 721.153846,419.293413 L721.153846,51.7065868 C721.153846,38.7262417 710.39146,28.2035928 697.115385,28.2035928 L52.8846154,28.2035928 Z M52.8846154,0 L697.115385,0 C726.322751,-5.0099645e-15 750,23.1498275 750,51.7065868 L750,419.293413 C750,447.850173 726.322751,471 697.115385,471 L52.8846154,471 C23.6772488,471 3.41607085e-15,447.850173 0,419.293413 L0,51.7065868 C-3.41607085e-15,23.1498275 23.6772488,5.0099645e-15 52.8846154,0 Z" id="outline"></path>
            <g id="Logo" transform="translate(60.000000, 139.000000)">
                <polygon id="Shape" points="222.597614 191.12625 254.442205 4.26252273 305.375795 4.26252273 273.50925 191.12625"></polygon>
                <path d="M457.520795,8.29261364 C447.429341,4.50688636 431.61825,0.444340909 411.871568,0.444340909 C361.544114,0.444340909 326.092295,25.7884773 325.790659,62.1117955 C325.507159,88.9622045 351.099477,103.940932 370.419477,112.879295 C390.244432,122.038159 396.910023,127.879977 396.815523,136.058523 C396.689523,148.584068 380.983432,154.306568 366.343568,154.306568 C345.957341,154.306568 335.127068,151.474432 318.400568,144.497659 L311.837114,141.527114 L304.688523,183.359114 C316.585023,188.57475 338.583477,193.094523 361.424795,193.328386 C414.964295,193.328386 449.721205,168.274432 450.116386,129.486477 C450.30825,108.229705 436.738432,92.0520682 407.353705,78.7161136 C389.550477,70.07175 378.647659,64.3034318 378.763159,55.55025 C378.763159,47.7831136 387.991705,39.4776136 407.931205,39.4776136 C424.587068,39.2189318 436.651568,42.8509773 446.051932,46.6367045 L450.616568,48.7930227 L457.520795,8.29261364" id="Shape"></path>
                <path d="M588.586568,4.26252273 L549.229705,4.26252273 C537.037295,4.26252273 527.91375,7.59006818 522.55875,19.7586136 L446.915795,191.006932 L500.399932,191.006932 C500.399932,191.006932 509.145477,167.981386 511.123295,162.926114 C516.967977,162.926114 568.924841,163.006295 576.353114,163.006295 C577.876568,169.547795 582.550023,191.006932 582.550023,191.006932 L629.811477,191.006932 L588.586568,4.26252273 Z M526.143068,124.92375 C530.355477,114.157432 546.43575,72.6881591 546.43575,72.6881591 C546.135068,73.1854773 550.616659,61.8693409 553.189159,54.8534318 L556.632205,70.96425 C556.632205,70.96425 566.384795,115.569205 568.42275,124.922795 L526.143068,124.922795 L526.143068,124.92375 Z" id="Path"></path>
                <path d="M179.361477,4.26252273 L129.496023,131.689568 L124.183023,105.793705 C114.900068,75.94125 85.9773409,43.5993409 53.6430682,27.4073864 L99.2388409,190.828432 L153.127705,190.766386 L233.313341,4.26252273 L179.361477,4.26252273" id="Path"></path>
                <path d="M82.9686136,4.26252273 L0.838568182,4.26252273 L0.188522727,8.15038636 C64.0848409,23.6178409 106.364523,60.9968864 123.914795,105.909205 L106.056205,20.0382955 C102.973023,8.20575 94.0308409,4.67488636 82.9686136,4.26252273" id="Shape"></path>
            </g>
        </g>
    </g>
</svg>
